symbols/web/note_alt/materialsymbolsoutlined/note_alt_wght500gradN25_24px.svg

<svg xmlns="http://www.w3.org/2000/svg" height="24" width="24"><path d="M7.15 16.85h1.975l5.925-5.9-2.025-2-5.875 5.875Zm8.55-6.55 1.025-1.05q.125-.15.125-.35 0-.2-.125-.35L15.45 7.275q-.15-.15-.35-.15-.2 0-.35.15l-1.05 1ZM5.175 20.975q-.9 0-1.525-.638-.625-.637-.625-1.512V5.2q0-.9.625-1.525.625-.625 1.525-.625h4.05q.3-.9 1.063-1.438.762-.537 1.712-.537t1.713.537q.762.538 1.062 1.438h4.05q.9 0 1.525.625.625.625.625 1.525v13.625q0 .875-.625 1.512-.625.638-1.525.638Zm0-2.15h13.65V5.2H5.175v13.625ZM12 4.475q.35 0 .575-.225.225-.225.225-.575t-.225-.575q-.225-.225-.575-.225t-.575.225q-.225.225-.225.575t.225.575q.225.225.575.225Zm-6.825 14.35V5.2v13.625Z"/></svg>

<svg xmlns="http://www.w3.org/2000/svg" height="24" width="24"><path d="M7.15 16.85H9.125L15.05 10.95L13.025 8.95L7.15 14.825ZM15.7 10.3 16.725 9.25Q16.85 9.1 16.85 8.9Q16.85 8.7 16.725 8.55L15.45 7.275Q15.3 7.125 15.1 7.125Q14.9 7.125 14.75 7.275L13.7 8.275ZM5.175 20.975Q4.275 20.975 3.65 20.337Q3.025 19.7 3.025 18.825V5.2Q3.025 4.3 3.65 3.675Q4.275 3.05 5.175 3.05H9.225Q9.525 2.15 10.288 1.612Q11.05 1.075 12 1.075Q12.95 1.075 13.713 1.612Q14.475 2.15 14.775 3.05H18.825Q19.725 3.05 20.35 3.675Q20.975 4.3 20.975 5.2V18.825Q20.975 19.7 20.35 20.337Q19.725 20.975 18.825 20.975ZM12 4.475Q12.35 4.475 12.575 4.25Q12.8 4.025 12.8 3.675Q12.8 3.325 12.575 3.1Q12.35 2.875 12 2.875Q11.65 2.875 11.425 3.1Q11.2 3.325 11.2 3.675Q11.2 4.025 11.425 4.25Q11.65 4.475 12 4.475ZM5.175 18.825H18.825Q18.825 18.825 18.825 18.825Q18.825 18.825 18.825 18.825V5.2Q18.825 5.2 18.825 5.2Q18.825 5.2 18.825 5.2H5.175Q5.175 5.2 5.175 5.2Q5.175 5.2 5.175 5.2V18.825Q5.175 18.825 5.175 18.825Q5.175 18.825 5.175 18.825ZM5.175 5.2Q5.175 5.2 5.175 5.2Q5.175 5.2 5.175 5.2V18.825Q5.175 18.825 5.175 18.825Q5.175 18.825 5.175 18.825Q5.175 18.825 5.175 18.825Q5.175 18.825 5.175 18.825V5.2Q5.175 5.2 5.175 5.2Q5.175 5.2 5.175 5.2Z"/></svg>
